svg/Mapbox-maki/mobilephone-18.svg

<?xml version="1.0" encoding="UTF-8" standalone="no"?>
<!-- Created with Inkscape (http://www.inkscape.org/) -->

<svg
   xmlns:dc="http://purl.org/dc/elements/1.1/"
   xmlns:cc="http://creativecommons.org/ns#"
   xmlns:rdf="http://www.w3.org/1999/02/22-rdf-syntax-ns#"
   xmlns:svg="http://www.w3.org/2000/svg"
   xmlns="http://www.w3.org/2000/svg"
   xmlns:sodipodi="http://sodipodi.sourceforge.net/DTD/sodipodi-0.dtd"
   xmlns:inkscape="http://www.inkscape.org/namespaces/inkscape"
   width="18"
   height="18"
   id="svg4619"
   version="1.1"
   inkscape:version="0.48.2 r9819"
   sodipodi:docname="mobilephone-18.svg">
  <defs
     id="defs4621" />
  <sodipodi:namedview
     id="base"
     pagecolor="#ffffff"
     bordercolor="#666666"
     borderopacity="1.0"
     inkscape:pageopacity="0.0"
     inkscape:pageshadow="2"
     inkscape:zoom="28.613988"
     inkscape:cx="7.6652331"
     inkscape:cy="10.897987"
     inkscape:document-units="px"
     inkscape:current-layer="layer1"
     showgrid="true"
     showguides="false"
     inkscape:guide-bbox="true"
     inkscape:window-width="1440"
     inkscape:window-height="825"
     inkscape:window-x="1"
     inkscape:window-y="8"
     inkscape:window-maximized="0">
    <inkscape:grid
       type="xygrid"
       id="grid4627"
       empspacing="2"
       visible="true"
       enabled="true"
       snapvisiblegridlinesonly="true"
       spacingx="0.5px"
       spacingy="0.5px"
       color="#ff00ff"
       opacity="0.1254902" />
    <sodipodi:guide
       orientation="0,1"
       position="7,18"
       id="guide4659" />
    <sodipodi:guide
       orientation="1,0"
       position="18,9"
       id="guide4661" />
    <sodipodi:guide
       orientation="0,1"
       position="16,17"
       id="guide4663" />
    <sodipodi:guide
       orientation="1,0"
       position="17,14"
       id="guide4665" />
    <sodipodi:guide
       orientation="1,0"
       position="0,16"
       id="guide4667" />
    <sodipodi:guide
       orientation="0,1"
       position="8,0"
       id="guide4669" />
    <sodipodi:guide
       orientation="1,0"
       position="2,10"
       id="guide4671" />
    <sodipodi:guide
       orientation="0,1"
       position="12,2"
       id="guide4673" />
  </sodipodi:namedview>
  <metadata
     id="metadata4624">
    <rdf:RDF>
      <cc:Work
         rdf:about="">
        <dc:format>image/svg+xml</dc:format>
        <dc:type
           rdf:resource="http://purl.org/dc/dcmitype/StillImage" />
        <dc:title></dc:title>
      </cc:Work>
    </rdf:RDF>
  </metadata>
  <g
     inkscape:label="Layer 1"
     inkscape:groupmode="layer"
     id="layer1"
     transform="translate(0,-1034.3622)">
    <path
       style="fill:#ffffff;fill-opacity:1;stroke:#ffffff;opacity:0.29999999999999999;color:#000000;fill-rule:nonzero;stroke-width:2;stroke-linecap:butt;stroke-linejoin:round;stroke-miterlimit:4;stroke-opacity:1;stroke-dasharray:none;stroke-dashoffset:0;marker:none;visibility:visible;display:inline;overflow:visible;enable-background:accumulate"
       d="M 6 1 L 6 3 C 5.499932 3 5 3.598 5 4 L 5 15 C 5 15.4019 5.499932 16 6 16 L 13 16 C 13.500067 16 14 15.4019 14 15 L 14 4 C 14 3.598 13.500067 3 13 3 L 8 3 L 8 1 L 6 1 z "
       transform="translate(0,1034.3622)"
       id="path8686" />
    <path
       style="fill:#444444;fill-opacity:1;stroke:none"
       d="m 6,1037.3622 c -0.500068,0 -1,0.5981 -1,1.0001 l 0,11 c 0,0.4019 0.499932,0.9999 1,0.9999 l 7,0 c 0.500067,0 1,-0.598 1,-0.9999 l 0,-11 c 0,-0.402 -0.499933,-1.0001 -1,-1.0001 z"
       id="rect6639"
       inkscape:connector-curvature="0"
       sodipodi:nodetypes="sssssssss" />
    <rect
       style="fill:#444444;fill-opacity:1;stroke:none"
       id="rect7921"
       width="2"
       height="3.0001395"
       x="6"
       y="1035.3621"
       ry="0.00013945313" />
    <rect
       style="fill:#ffffff;fill-opacity:1;stroke:none"
       id="rect7923"
       width="5"
       height="3.0001523"
       x="7"
       y="1039.3621" />
    <rect
       style="fill:#ffffff;fill-opacity:1;stroke:none"
       id="rect8121"
       width="2"
       height="2.0000522"
       x="7"
       y="-1048.3622"
       transform="scale(1,-1)"
       ry="0" />
    <rect
       ry="0"
       transform="scale(1,-1)"
       y="-1048.3622"
       x="10"
       height="2.0000522"
       width="2"
       id="rect8129"
       style="fill:#ffffff;fill-opacity:1;stroke:none" />
    <rect
       ry="0"
       transform="scale(1,-1)"
       y="-1045.3622"
       x="7"
       height="1.9718878"
       width="2"
       id="rect8131"
       style="fill:#ffffff;fill-opacity:1;stroke:none" />
    <rect
       style="fill:#ffffff;fill-opacity:1;stroke:none"
       id="rect8133"
       width="2"
       height="1.9718878"
       x="10"
       y="-1045.3622"
       transform="scale(1,-1)"
       ry="0" />
  </g>
</svg>

<svg xmlns="http://www.w3.org/2000/svg" viewBox="0 0 18 18"><g transform="translate(0-1034.36)"><path d="m6 1v2c-.5 0-1 .598-1 1v11c0 .402.5 1 1 1h7c.5 0 1-.598 1-1v-11c0-.402-.5-1-1-1h-5v-2h-2z" transform="translate(0 1034.36)" opacity=".3" color="#000" stroke-width="2" fill="#fff" stroke-linejoin="round" stroke="#fff"/><g fill="#444"><path d="m6 1037.36c-.5 0-1 .598-1 1v11c0 .402.5 1 1 1h7c.5 0 1-.598 1-1v-11c0-.402-.5-1-1-1z"/><rect width="2" height="3" x="6" y="1035.36" rx="0"/></g><g fill="#fff"><path d="m7 1039.36h5v3h-5z"/><g transform="scale(1-1)"><path d="m7-1048.36h2v2h-2z"/><path d="m10-1048.36h2v2h-2z"/><path d="m7-1045.36h2v1.97h-2z"/><path d="m10-1045.36h2v1.97h-2z"/></g></g></g></svg>
